svgs/duotone/tarp.svg

<svg xmlns="http://www.w3.org/2000/svg" viewBox="0 0 576 512"><!--! Font Awesome Pro 6.4.0 by @fontawesome - https://fontawesome.com License - https://fontawesome.com/license (Commercial License) Copyright 2023 Fonticons, Inc. --><defs><style>.fa-secondary{opacity:.4}</style></defs><path class="fa-primary" d="M576 288L416 448l0-128c0-17.7 14.3-32 32-32l128 0z"/><path class="fa-secondary" d="M512 64c35.3 0 64 28.7 64 64V288l-128 0c-17.7 0-32 14.3-32 32l0 128L64 448c-35.3 0-64-28.7-64-64V128C0 92.7 28.7 64 64 64H512zM96 192a32 32 0 1 0 0-64 32 32 0 1 0 0 64z"/></svg>

<svg xmlns="http://www.w3.org/2000/svg" viewBox="0 0 576 512"><!--! Font Awesome Pro 6.3.0 by @fontawesome - https://fontawesome.com License - https://fontawesome.com/license (Commercial License) Copyright 2023 Fonticons, Inc. --><defs><style>.fa-secondary{opacity:.4}</style></defs><path class="fa-primary" d="M576 288L416 448V320C416 302.3 430.3 288 448 288H576z"/><path class="fa-secondary" d="M512 64C547.3 64 576 92.65 576 128V288H448C430.3 288 416 302.3 416 320V448H64C28.65 448 0 419.3 0 384V128C0 92.65 28.65 64 64 64H512zM96 192C113.7 192 128 177.7 128 160C128 142.3 113.7 128 96 128C78.33 128 64 142.3 64 160C64 177.7 78.33 192 96 192z"/></svg>
